src/vectors/cta.svg

<svg xmlns="http://www.w3.org/2000/svg" width="1146" height="130" fill="none" viewBox="0 0 1146 130">
    <path fill="#FC5E38" fill-rule="evenodd" d="m16.097 129.619.194-.981c1.199.238 2.439.362 3.709.362h4.009v1H20c-1.336 0-2.64-.131-3.903-.381ZM1121.99 130v-1h4.01c1.27 0 2.51-.124 3.71-.362l.19.981c-1.26.25-2.56.381-3.9.381h-4.01Zm15.12-3.369-.55-.831a19.16 19.16 0 0 0 5.24-5.244l.83.556a20.123 20.123 0 0 1-5.52 5.519ZM1146 23.75h-1V20c0-1.27-.12-2.51-.36-3.71l.98-.193c.25 1.262.38 2.567.38 3.903v3.75Zm-3.37-14.862-.83.556a19.162 19.162 0 0 0-5.24-5.244l.55-.831a20.125 20.125 0 0 1 5.52 5.519ZM1113.98-1h-8.02v2h8.02v-2Zm-16.03 0h-8.02v2h8.02v-2Zm-16.03 0h-8.02v2h8.02v-2Zm-16.03 0h-8.01v2h8.01v-2Zm-16.03 0h-8.01v2h8.01v-2Zm-16.03 0h-8.01v2h8.01v-2Zm-16.03 0h-8.01v2h8.01v-2Zm-16.03 0h-8.011v2h8.011v-2Zm-16.025 0h-8.014v2h8.014v-2Zm-16.029 0h-8.014v2h8.014v-2Zm-16.029 0h-8.014v2h8.014v-2Zm-16.029 0h-8.014v2h8.014v-2Zm-16.029 0h-8.014v2h8.014v-2ZM905.6-1h-8.014v2h8.014v-2Zm-16.029 0h-8.014v2h8.014v-2Zm-16.029 0h-8.014v2h8.014v-2Zm-16.028 0h-8.015v2h8.015v-2Zm-16.029 0h-8.015v2h8.015v-2Zm-16.029 0h-8.015v2h8.015v-2Zm-16.029 0h-8.015v2h8.015v-2Zm-16.029 0h-8.015v2h8.015v-2Zm-16.029 0h-8.015v2h8.015v-2ZM761.34-1h-8.014v2h8.014v-2Zm-16.029 0h-8.014v2h8.014v-2Zm-16.029 0h-8.014v2h8.014v-2Zm-16.029 0h-8.014v2h8.014v-2Zm-16.029 0h-8.014v2h8.014v-2Zm-16.029 0h-8.014v2h8.014v-2Zm-16.029 0h-8.014v2h8.014v-2Zm-16.029 0h-8.014v2h8.014v-2Zm-16.028 0h-8.015v2h8.015v-2ZM617.08-1h-8.015v2h8.015v-2Zm-16.029 0h-8.015v2h8.015v-2Zm-16.029 0h-8.015v2h8.015v-2Zm-16.029 0h-8.015v2h8.015v-2Zm-16.029 0h-8.015v2h8.015v-2Zm-16.029 0h-8.015v2h8.015v-2Zm-16.029 0h-8.015v2h8.015v-2Zm-16.029 0h-8.015v2h8.015v-2Zm-16.029 0h-8.015v2h8.015v-2Zm-16.029 0h-8.015v2h8.015v-2ZM456.79-1h-8.015v2h8.015v-2Zm-16.029 0h-8.015v2h8.015v-2Zm-16.029 0h-8.015v2h8.015v-2Zm-16.029 0h-8.014v2h8.014v-2Zm-16.029 0h-8.014v2h8.014v-2Zm-16.029 0h-8.014v2h8.014v-2Zm-16.029 0h-8.014v2h8.014v-2Zm-16.029 0h-8.014v2h8.014v-2Zm-16.029 0h-8.014v2h8.014v-2Zm-16.029 0h-8.014v2h8.014v-2ZM296.5-1h-8.014v2h8.014v-2Zm-16.029 0h-8.014v2h8.014v-2Zm-16.029 0h-8.014v2h8.014v-2Zm-16.029 0h-8.014v2h8.014v-2Zm-16.029 0h-8.014v2h8.014v-2Zm-16.029 0h-8.014v2h8.014v-2Zm-16.029 0h-8.014v2h8.014v-2Zm-16.029 0h-8.014v2h8.014v-2Zm-16.029 0h-8.014v2h8.014v-2Zm-16.029 0h-8.014v2h8.014v-2ZM136.21-1h-8.014v2h8.014v-2Zm-16.029 0h-8.014v2h8.014v-2Zm-16.029 0h-8.014v2h8.014v-2ZM88.123-1H80.11v2h8.014v-2ZM72.094-1H64.08v2h8.014v-2ZM56.065-1h-8.014v2h8.014v-2ZM40.036-1h-8.014v2h8.014v-2ZM24.007 0H20c-1.336 0-2.64.13-3.903.38l.194.982A19.098 19.098 0 0 1 20 1h4.007V0ZM8.887 3.369l.557.83A19.11 19.11 0 0 0 4.2 9.445l-.831-.556a20.11 20.11 0 0 1 5.519-5.52ZM0 106.25h1V110c0 1.27.125 2.51.362 3.709l-.981.194A20.09 20.09 0 0 1 0 110v-3.75Zm3.369 14.862.83-.556a19.108 19.108 0 0 0 5.245 5.244l-.556.831a20.108 20.108 0 0 1-5.52-5.519ZM0 98.75h1v-7.5H0v7.5Zm0-15h1v-7.5H0v7.5Zm0-15h1v-7.5H0v7.5Zm0-15h1v-7.5H0v7.5Zm0-15h1v-7.5H0v7.5Zm0-15h1V20c0-1.27.125-2.51.362-3.71l-.981-.193A20.097 20.097 0 0 0 0 20v3.75ZM1121.99 0v1h4.01c1.27 0 2.51.125 3.71.362l.19-.981M1146 31.25h-1v7.5h1v-7.5Zm0 15h-1v7.5h1v-7.5Zm0 15h-1v7.5h1v-7.5Zm0 15h-1v7.5h1v-7.5Zm0 15h-1v7.5h1v-7.5Zm0 15h-1V110c0 1.27-.12 2.51-.36 3.709l.98.194c.25-1.262.38-2.567.38-3.903v-3.75ZM1113.98 130v-1h-8.02v1h8.02Zm-16.03 0v-1h-8.02v1h8.02Zm-16.03 0v-1h-8.01v1h8.01Zm-16.03 0v-1h-8.01v1h8.01Zm-16.03 0v-1h-8.01v1h8.01Zm-16.03 0v-1h-8.01v1h8.01Zm-16.03 0v-1h-8.01v1h8.01Zm-16.02 0v-1h-8.019v1h8.019Zm-16.034 0v-1h-8.014v1h8.014Zm-16.029 0v-1h-8.014v1h8.014Zm-16.029 0v-1h-8.014v1h8.014Zm-16.029 0v-1h-8.014v1h8.014Zm-16.029 0v-1h-8.014v1h8.014Zm-16.029 0v-1h-8.014v1h8.014Zm-16.029 0v-1h-8.014v1h8.014Zm-16.029 0v-1h-8.014v1h8.014Zm-16.029 0v-1H849.5v1h8.014Zm-16.029 0v-1h-8.014v1h8.014Zm-16.029 0v-1h-8.014v1h8.014Zm-16.029 0v-1h-8.014v1h8.014Zm-16.029 0v-1h-8.014v1h8.014Zm-16.028 0v-1h-8.015v1h8.015Zm-16.03 0v-1h-8.014v1h8.014Zm-16.029 0v-1h-8.014v1h8.014Zm-16.028 0v-1h-8.015v1h8.015Zm-16.029 0v-1h-8.015v1h8.015Zm-16.03 0v-1h-8.014v1h8.014Zm-16.029 0v-1h-8.014v1h8.014Zm-16.028 0v-1h-8.015v1h8.015Zm-16.029 0v-1h-8.015v1h8.015Zm-16.029 0v-1h-8.015v1h8.015Zm-16.029 0v-1h-8.015v1h8.015Zm-16.029 0v-1h-8.015v1h8.015Zm-16.029 0v-1h-8.015v1h8.015Zm-16.029 0v-1h-8.015v1h8.015Zm-16.029 0v-1h-8.015v1h8.015Zm-16.029 0v-1h-8.015v1h8.015Zm-16.029 0v-1h-8.015v1h8.015Zm-16.029 0v-1h-8.014v1h8.014Zm-16.029 0v-1h-8.014v1h8.014Zm-16.029 0v-1h-8.014v1h8.014Zm-16.029 0v-1h-8.014v1h8.014Zm-16.029 0v-1h-8.014v1h8.014Zm-16.029 0v-1h-8.014v1h8.014Zm-16.029 0v-1h-8.014v1h8.014Zm-16.029 0v-1h-8.014v1h8.014Zm-16.028 0v-1h-8.015v1h8.015Zm-16.029 0v-1h-8.015v1h8.015Zm-16.029 0v-1h-8.015v1h8.015Zm-16.029 0v-1h-8.015v1h8.015Zm-16.029 0v-1h-8.015v1h8.015Zm-16.029 0v-1h-8.015v1h8.015Zm-16.029 0v-1h-8.014v1h8.014Zm-16.029 0v-1h-8.014v1h8.014Zm-16.029 0v-1H240.4v1h8.014Zm-16.029 0v-1h-8.014v1h8.014Zm-16.029 0v-1h-8.014v1h8.014Zm-16.029 0v-1h-8.014v1h8.014Zm-16.029 0v-1h-8.014v1h8.014Zm-16.029 0v-1h-8.014v1h8.014Zm-16.028 0v-1h-8.015v1h8.015Zm-16.029 0v-1h-8.015v1h8.015Zm-16.029 0v-1h-8.015v1h8.015Zm-16.029 0v-1h-8.015v1h8.015Zm-16.03 0v-1H80.11v1h8.015Zm-16.028 0v-1H64.08v1h8.015Zm-16.03 0v-1h-8.014v1h8.015Zm-16.028 0v-1h-8.015v1h8.015Z"/>
</svg>

<svg width="1146" height="130" viewBox="0 0 1146 130" fill="none" xmlns="http://www.w3.org/2000/svg">
<g clip-path="url(#clip0_4_20)">
<path fill-rule="evenodd" clip-rule="evenodd" d="M16.0968 129.619L16.2908 128.638C17.4897 128.876 18.7298 129 20 129H24.0086V130H20C18.6643 130 17.3592 129.869 16.0968 129.619ZM1121.99 130V129H1126C1127.27 129 1128.51 128.876 1129.71 128.638L1129.9 129.619C1128.64 129.869 1127.34 130 1126 130H1121.99ZM1137.11 126.631L1136.56 125.8C1138.63 124.413 1140.41 122.628 1141.8 120.556L1142.63 121.112C1141.17 123.293 1139.29 125.171 1137.11 126.631ZM1146 23.75H1145V20C1145 18.7298 1144.88 17.4897 1144.64 16.2908L1145.62 16.0968C1145.87 17.3592 1146 18.6643 1146 20V23.75ZM1142.63 8.88768L1141.8 9.44401C1140.41 7.3716 1138.63 5.5871 1136.56 4.19966L1137.11 3.3687C1139.29 4.82886 1141.17 6.70666 1142.63 8.88768ZM1113.98 -1H1105.96V1H1113.98V-1ZM1097.95 -1H1089.93V1H1097.95V-1ZM1081.92 -1H1073.9V1H1081.92V-1ZM1065.89 -1H1057.88V1H1065.89V-1ZM1049.86 -1H1041.85V1H1049.86V-1ZM1033.83 -1H1025.82V1H1033.83V-1ZM1017.8 -1H1009.79V1H1017.8V-1ZM1001.77 -1H993.759V1H1001.77V-1ZM985.745 -1H977.731V1H985.745V-1ZM969.716 -1H961.702V1H969.716V-1ZM953.687 -1H945.673V1H953.687V-1ZM937.658 -1H929.644V1H937.658V-1ZM921.629 -1H913.615V1H921.629V-1ZM905.6 -1H897.586V1H905.6V-1ZM889.571 -1H881.557V1H889.571V-1ZM873.542 -1H865.528V1H873.542V-1ZM857.514 -1H849.499V1H857.514V-1ZM841.485 -1H833.47V1H841.485V-1ZM825.456 -1H817.441V1H825.456V-1ZM809.427 -1H801.412V1H809.427V-1ZM793.398 -1H785.383V1H793.398V-1ZM777.369 -1H769.354V1H777.369V-1ZM761.34 -1H753.326V1H761.34V-1ZM745.311 -1H737.297V1H745.311V-1ZM729.282 -1H721.268V1H729.282V-1ZM713.253 -1H705.239V1H713.253V-1ZM697.224 -1H689.21V1H697.224V-1ZM681.195 -1H673.181V1H681.195V-1ZM665.166 -1H657.152V1H665.166V-1ZM649.137 -1H641.123V1H649.137V-1ZM633.109 -1H625.094V1H633.109V-1ZM617.08 -1H609.065V1H617.08V-1ZM601.051 -1H593.036V1H601.051V-1ZM585.022 -1H577.007V1H585.022V-1ZM568.993 -1H560.978V1H568.993V-1ZM552.964 -1H544.949V1H552.964V-1ZM536.935 -1H528.92V1H536.935V-1ZM520.906 -1H512.891V1H520.906V-1ZM504.877 -1H496.862V1H504.877V-1ZM488.848 -1H480.833V1H488.848V-1ZM472.819 -1H464.804V1H472.819V-1ZM456.79 -1H448.775V1H456.79V-1ZM440.761 -1H432.746V1H440.761V-1ZM424.732 -1H416.717V1H424.732V-1ZM408.703 -1H400.689V1H408.703V-1ZM392.674 -1H384.66V1H392.674V-1ZM376.645 -1H368.631V1H376.645V-1ZM360.616 -1H352.602V1H360.616V-1ZM344.587 -1H336.573V1H344.587V-1ZM328.558 -1H320.544V1H328.558V-1ZM312.529 -1H304.515V1H312.529V-1ZM296.5 -1H288.486V1H296.5V-1ZM280.471 -1H272.457V1H280.471V-1ZM264.442 -1H256.428V1H264.442V-1ZM248.413 -1H240.399V1H248.413V-1ZM232.384 -1H224.37V1H232.384V-1ZM216.355 -1H208.341V1H216.355V-1ZM200.326 -1H192.312V1H200.326V-1ZM184.297 -1H176.283V1H184.297V-1ZM168.268 -1H160.254V1H168.268V-1ZM152.239 -1H144.225V1H152.239V-1ZM136.21 -1H128.196V1H136.21V-1ZM120.181 -1H112.167V1H120.181V-1ZM104.152 -1H96.1377V1H104.152V-1ZM88.1232 -1H80.1087V1H88.1232V-1ZM72.0942 -1H64.0797V1H72.0942V-1ZM56.0652 -1H48.0507V1H56.0652V-1ZM40.0362 -1H32.0217V1H40.0362V-1ZM24.0072 0H20C18.6643 0 17.3592 0.130939 16.0968 0.380681L16.2908 1.36167C17.4897 1.1245 18.7298 1 20 1H24.0072V0ZM8.88769 3.36869L9.44401 4.19966C7.3716 5.5871 5.5871 7.3716 4.19966 9.44401L3.36869 8.88768C4.82885 6.70666 6.70666 4.82885 8.88769 3.36869ZM0 106.25H1V110C1 111.27 1.1245 112.51 1.36167 113.709L0.380681 113.903C0.130939 112.641 0 111.336 0 110V106.25ZM3.36869 121.112L4.19966 120.556C5.5871 122.628 7.37159 124.413 9.444 125.8L8.88768 126.631C6.70665 125.171 4.82885 123.293 3.36869 121.112ZM0 98.75H1V91.25H0V98.75ZM0 83.75H1V76.25H0V83.75ZM0 68.75H1V61.25H0V68.75ZM0 53.75H1V46.25H0V53.75ZM0 38.75H1V31.25H0V38.75ZM0 23.75H1V20C1 18.7298 1.1245 17.4897 1.36167 16.2908L0.380681 16.0968C0.130939 17.3592 0 18.6643 0 20V23.75ZM1121.99 0V1H1126C1127.27 1 1128.51 1.1245 1129.71 1.36167L1129.9 0.380675M1146 31.25H1145V38.75H1146V31.25ZM1146 46.25H1145V53.75H1146V46.25ZM1146 61.25H1145V68.75H1146V61.25ZM1146 76.25H1145V83.75H1146V76.25ZM1146 91.25H1145V98.75H1146V91.25ZM1146 106.25H1145V110C1145 111.27 1144.88 112.51 1144.64 113.709L1145.62 113.903C1145.87 112.641 1146 111.336 1146 110V106.25ZM1113.98 130V129H1105.96V130H1113.98ZM1097.95 130V129H1089.93V130H1097.95ZM1081.92 130V129H1073.91V130H1081.92ZM1065.89 130V129H1057.88V130H1065.89ZM1049.86 130V129H1041.85V130H1049.86ZM1033.83 130V129H1025.82V130H1033.83ZM1017.8 130V129H1009.79V130H1017.8ZM1001.78 130V129H993.761V130H1001.78ZM985.746 130V129H977.732V130H985.746ZM969.717 130V129H961.703V130H969.717ZM953.688 130V129H945.674V130H953.688ZM937.659 130V129H929.645V130H937.659ZM921.63 130V129H913.616V130H921.63ZM905.601 130V129H897.587V130H905.601ZM889.572 130V129H881.558V130H889.572ZM873.543 130V129H865.529V130H873.543ZM857.514 130V129H849.5V130H857.514ZM841.485 130V129H833.471V130H841.485ZM825.456 130V129H817.442V130H825.456ZM809.427 130V129H801.413V130H809.427ZM793.398 130V129H785.384V130H793.398ZM777.37 130V129H769.355V130H777.37ZM761.34 130V129H753.326V130H761.34ZM745.311 130V129H737.297V130H745.311ZM729.283 130V129H721.268V130H729.283ZM713.254 130V129H705.239V130H713.254ZM697.224 130V129H689.21V130H697.224ZM681.195 130V129H673.181V130H681.195ZM665.167 130V129H657.152V130H665.167ZM649.138 130V129H641.123V130H649.138ZM633.109 130V129H625.094V130H633.109ZM617.08 130V129H609.065V130H617.08ZM601.051 130V129H593.036V130H601.051ZM585.022 130V129H577.007V130H585.022ZM568.993 130V129H560.978V130H568.993ZM552.964 130V129H544.949V130H552.964ZM536.935 130V129H528.92V130H536.935ZM520.906 130V129H512.891V130H520.906ZM504.877 130V129H496.863V130H504.877ZM488.848 130V129H480.834V130H488.848ZM472.819 130V129H464.805V130H472.819ZM456.79 130V129H448.776V130H456.79ZM440.761 130V129H432.747V130H440.761ZM424.732 130V129H416.718V130H424.732ZM408.703 130V129H400.689V130H408.703ZM392.674 130V129H384.66V130H392.674ZM376.646 130V129H368.631V130H376.646ZM360.617 130V129H352.602V130H360.617ZM344.588 130V129H336.573V130H344.588ZM328.559 130V129H320.544V130H328.559ZM312.53 130V129H304.515V130H312.53ZM296.501 130V129H288.486V130H296.501ZM280.472 130V129H272.458V130H280.472ZM264.443 130V129H256.429V130H264.443ZM248.414 130V129H240.4V130H248.414ZM232.385 130V129H224.371V130H232.385ZM216.356 130V129H208.342V130H216.356ZM200.327 130V129H192.313V130H200.327ZM184.298 130V129H176.284V130H184.298ZM168.269 130V129H160.255V130H168.269ZM152.241 130V129H144.226V130H152.241ZM136.212 130V129H128.197V130H136.212ZM120.183 130V129H112.168V130H120.183ZM104.154 130V129H96.1393V130H104.154ZM88.1247 130V129H80.1102V130H88.1247ZM72.0957 130V129H64.0811V130H72.0957ZM56.0667 130V129H48.0521V130H56.0667ZM40.0376 130V129H32.023V130H40.0376Z" fill="#FC5E38"/>
</g>
<defs>
<clipPath id="clip0_4_20">
<rect width="1146" height="130" fill="white"/>
</clipPath>
</defs>
</svg>
